Adwaita++-Dark/actions/22/texture.svg

<svg height="22" viewBox="0 0 22 22" width="22" xmlns="http://www.w3.org/2000/svg">
  <path d="m1 1v14h14v-14zm2 2h10v2.0039062h-10zm0 4.0039062h10v2h-10zm0 3.9999998h10v1.996094h-10z" fill="#e6ddff" transform="translate(3 3)"/>
</svg>

<svg xmlns="http://www.w3.org/2000/svg" width="22" height="22" viewBox="0 0 22 22">
 <defs>
  <style id="current-color-scheme" type="text/css">
   .ColorScheme-Text { color:#E6DDFF; } .ColorScheme-Highlight { color:#4285f4; }
  </style>
 </defs>
 <path style="fill:currentColor" class="ColorScheme-Text" d="M 1 1 L 1 15 L 15 15 L 15 1 L 1 1 z M 3 3 L 13 3 L 13 5.0039062 L 3 5.0039062 L 3 3 z M 3 7.0039062 L 13 7.0039062 L 13 9.0039062 L 3 9.0039062 L 3 7.0039062 z M 3 11.003906 L 13 11.003906 L 13 13 L 3 13 L 3 11.003906 z" transform="translate(3 3)"/>
</svg>
